src/assets/tokens/ANGLE-polygon.svg

<svg width="194" height="194" viewBox="0 0 194 194" fill="none" xmlns="http://www.w3.org/2000/svg">
<circle cx="97" cy="97" r="97" fill="#FAF1E7"/>
<path d="M154.547 119.309L97.0596 62.1619L39.5719 119.309L68.3161 147.882L97.06 119.309L125.803 147.882L154.547 119.309Z" fill="white"/>
<path d="M97.0593 119.308L125.803 147.885L131.552 133.734L97.0593 99.4464L97.0593 119.308Z" fill="#FAF1E7" stroke="#1F2333" stroke-width="1.71294" stroke-linejoin="round"/>
<path d="M154.551 119.302L125.804 147.876L131.553 133.734L166.045 99.4464L154.551 119.302Z" fill="#1F2333" stroke="#1F2333" stroke-width="1.71294" stroke-linejoin="round"/>
<path d="M97.0601 119.308L68.316 147.885L62.5674 133.734L97.0601 99.4464L97.0601 119.308Z" fill="#1F2333" stroke="#1F2333" stroke-width="1.71294" stroke-linejoin="round"/>
<path d="M39.5683 119.302L68.3155 147.876L62.5669 133.734L28.0742 99.4464L39.5683 119.302Z" fill="#FAF1E7" stroke="#1F2333" stroke-width="1.71294" stroke-linejoin="round"/>
<path d="M166.045 99.4437L97.0594 30.8677L28.0741 99.4437L62.5671 133.732L97.0598 99.4442L131.552 133.732L166.045 99.4437Z" fill="url(#paint0_linear_5043_60908)" stroke="#1F2333" stroke-width="1.71294" stroke-linejoin="round"/>
<circle cx="97.0291" cy="45.0291" r="36.0291" fill="white"/>
<path d="M106.254 39.8824C105.587 39.4908 104.717 39.4908 103.977 39.8824L98.7551 42.9067L95.2086 44.8794L89.9869 47.9036C89.3197 48.2953 88.4494 48.2953 87.7096 47.9036L83.5612 45.5393C82.894 45.1477 82.4226 44.4225 82.4226 43.6319V38.9686C82.4226 38.1781 82.8215 37.4601 83.5612 37.0612L87.6443 34.7622C88.3116 34.3706 89.1819 34.3706 89.9216 34.7622L94.0047 37.0612C94.672 37.4528 95.1434 38.1781 95.1434 38.9686V41.9929L98.6898 39.9549V36.9307C98.6898 36.1401 98.2909 35.4222 97.5512 35.0233L89.9941 30.6863C89.3269 30.2947 88.4566 30.2947 87.7169 30.6863L80.0293 35.0233C79.2895 35.4149 78.8906 36.1401 78.8906 36.9307V45.6699C78.8906 46.4604 79.2895 47.1784 80.0293 47.5773L87.7241 51.9142C88.3913 52.3059 89.2616 52.3059 90.0014 51.9142L95.2232 48.9552L98.7696 46.9173L103.991 43.9583C104.659 43.5667 105.529 43.5667 106.269 43.9583L110.352 46.2573C111.019 46.649 111.49 47.3742 111.49 48.1647V52.8281C111.49 53.6186 111.092 54.3366 110.352 54.7354L106.269 57.0997C105.601 57.4914 104.731 57.4914 103.991 57.0997L99.9082 54.8007C99.241 54.4091 98.7696 53.6838 98.7696 52.8933V49.8691L95.2232 51.907V54.9313C95.2232 55.7218 95.622 56.4398 96.3618 56.8387L104.057 61.1756C104.724 61.5673 105.594 61.5673 106.334 61.1756L114.029 56.8387C114.696 56.447 115.167 55.7218 115.167 54.9313V46.1921C115.167 45.4015 114.769 44.6835 114.029 44.2847L106.254 39.8824Z" fill="#8247E5"/>
<defs>
<linearGradient id="paint0_linear_5043_60908" x1="166.044" y1="82.2992" x2="28.0741" y2="82.2992" gradientUnits="userSpaceOnUse">
<stop stop-color="#FAF1E7"/>
<stop offset="0.26021" stop-color="#FDCEAA"/>
<stop offset="0.61201" stop-color="#F4837D"/>
<stop offset="0.9999" stop-color="#B9AAFD"/>
</linearGradient>
</defs>
</svg>

<svg fill="none" height="194" width="194" xmlns="http://www.w3.org/2000/svg"><linearGradient id="a" gradientUnits="userSpaceOnUse" x1="166.044" x2="28.074" y1="82.299" y2="82.299"><stop offset="0" stop-color="#faf1e7"/><stop offset=".26" stop-color="#fdceaa"/><stop offset=".612" stop-color="#f4837d"/><stop offset="1" stop-color="#b9aafd"/></linearGradient><circle cx="97" cy="97" fill="#faf1e7" r="97"/><path d="M154.547 119.309L97.06 62.162l-57.488 57.147 28.744 28.573 28.744-28.573 28.743 28.573z" fill="#fff"/><g stroke="#1f2333" stroke-linejoin="round" stroke-width="1.713"><path d="M97.06 119.308l28.743 28.577 5.749-14.151-34.493-34.288z" fill="#faf1e7"/><path d="M154.551 119.302l-28.747 28.574 5.749-14.142 34.492-34.288zm-57.49.006l-28.745 28.577-5.749-14.151L97.06 99.446z" fill="#1f2333"/><path d="M39.568 119.302l28.748 28.574-5.75-14.142-34.492-34.288z" fill="#faf1e7"/><path d="M166.045 99.444L97.059 30.868 28.074 99.444l34.493 34.288L97.06 99.444l34.492 34.288z" fill="url(#a)"/></g><circle cx="97.029" cy="45.029" fill="#fff" r="36.029"/><path d="M106.254 39.882c-.667-.391-1.537-.391-2.277 0l-5.222 3.025-3.546 1.972-5.222 3.025c-.667.391-1.538.391-2.277 0l-4.149-2.365c-.667-.391-1.138-1.116-1.138-1.907v-4.663c0-.79.399-1.509 1.138-1.908l4.083-2.299c.668-.391 1.538-.391 2.278 0l4.083 2.3c.667.39 1.138 1.116 1.138 1.907v3.024l3.547-2.038V36.93c0-.79-.4-1.509-1.139-1.908l-7.557-4.337c-.667-.391-1.537-.391-2.277 0l-7.688 4.337a2.116 2.116 0 0 0-1.138 1.908v8.739c0 .79.399 1.508 1.138 1.907l7.695 4.337c.667.392 1.538.392 2.277 0l5.222-2.959 3.547-2.038 5.221-2.959c.668-.391 1.538-.391 2.278 0l4.083 2.3c.667.391 1.138 1.116 1.138 1.907v4.663c0 .79-.398 1.509-1.138 1.907l-4.083 2.365c-.668.391-1.538.391-2.278 0l-4.083-2.3c-.667-.39-1.138-1.116-1.138-1.907V49.87l-3.547 2.038v3.024c0 .79.399 1.509 1.139 1.908l7.695 4.337c.667.391 1.537.391 2.277 0l7.695-4.337c.667-.392 1.138-1.117 1.138-1.908v-8.739c0-.79-.398-1.508-1.138-1.907z" fill="#8247e5"/></svg>
